X:0689
T:Russian March.
M:C
L:1/8
Q:1/2=72
I: :| :|
Z:Jack Campin * www.campin.me.uk * 2009
K:D
A2 |d2d2 e2 e2 |f2 f>f f2 d>e|f2d2 g2e2|a2 a>a a2
e>f|g2g2 f2 f2 |e>dc>B A2 g2 |fagf egfe|d2 d>d d2:|
f2 |e2a2 c'ba^g|a2 a>a a2 e>f|g2g2 f2f2|e>dc>B A2
ag |f2d2 a4    |A>Bc>d ef g2 |fagf egfe|d2 d>d d2:|
<end>
<start>
